public/img/values/value-6.svg

<svg width="28" height="54" viewBox="0 0 28 54" fill="none" xmlns="http://www.w3.org/2000/svg">
<path d="M27.3337 22.8134V0.333374H0.666992V22.8134C0.666992 23.7467 1.14699 24.6267 1.97366 25.1067L13.1203 31.8L10.4803 38.04L1.38699 38.8134L8.29366 44.7867L6.18699 53.6667L14.0003 48.9467L21.8137 53.6667L19.7337 44.7867L26.6403 38.8134L17.547 38.04L14.907 31.8L26.0537 25.1067C26.8537 24.6267 27.3337 23.7734 27.3337 22.8134ZM16.667 27.6134L14.0003 29.2134L11.3337 27.6134V3.00004H16.667V27.6134Z" fill="#EB2629"/>
</svg>

<svg width="28" height="54" fill="none" xmlns="http://www.w3.org/2000/svg"><path d="M27.33 22.81V.33H.67v22.48c0 .94.48 1.82 1.3 2.3l11.15 6.69-2.64 6.24-9.1.77L8.3 44.8l-2.1 8.88L14 48.95l7.81 4.72-2.08-8.88 6.91-5.98-9.1-.77-2.63-6.24 11.14-6.7a2.64 2.64 0 0 0 1.28-2.29Zm-10.66 4.8L14 29.21l-2.67-1.6V3h5.34v24.61Z" fill="#EB2629"/></svg>
